X: 402
T: Come Dance and Sing
R: March
Q: 200
P: AABA last time only
S: FTB 2, via EF
M: 4/4
L: 1/4
K: D
(3A/2B/2c/2|"D"dc/2d/2 "A(Em)"ed/2e/2|"D(D/F#)"fd d/2e/2d/2c/2|"G"Be "(E/G#)"e/2f/2e/2d/2|\
"A7"cA AB/2c/2|
"D(Bm)"dc/2d/2 "A/c+"ed/2e/2|"Bm(G)"fd d/2e/2d/2c/2|"Em"Be "A7"d/2c/2B/2c/2|"D"dD D:|
|:A/2G/2|"D"FA A/2B/2A/2G/2|"D"FA AA/2G/2|"D"FA "D/F#"df|\
"G"e/2d/2c/2B/2 "A"AA/2G/2|
"D"FA A/2B/2A/2G/2|"D"FA AB/2c/2| "D"ddf/2e/2f/2g/2|"A"aA A:|\
P:Last Time
"D"ddc/2d/2e/2c/2|"D"d3|]

%%newpage
%%textfont * 14
%%begintext justify
%%32 Bar Marches
%%endtext
